icon/ir/data-transfer-warning.svg

<svg width="24" height="24" stroke-width="1.5" fill="none" xmlns="http://www.w3.org/2000/svg"><path d="M7 4v1M7 9v1M17 12V4m0 0 3 3m-3-3-3 3M20 16v2M20 22.01l.01-.011M7 14v6m0 0 3-3m-3 3-3-3" stroke="currentColor" stroke-linecap="round" stroke-linejoin="round"/></svg>

<svg stroke-width="1.5" viewBox="0 0 24 24" fill="none" xmlns="http://www.w3.org/2000/svg" height="1em" width="1em">
  <path d="M7 4L7 5" stroke="currentColor" stroke-linecap="round" stroke-linejoin="round"/>
  <path d="M7 9L7 10" stroke="currentColor" stroke-linecap="round" stroke-linejoin="round"/>
  <path d="M17 12V4M17 4L20 7M17 4L14 7" stroke="currentColor" stroke-linecap="round" stroke-linejoin="round"/>
  <path d="M20 16L20 18" stroke="currentColor" stroke-linecap="round" stroke-linejoin="round"/>
  <path d="M20 22.01L20.01 21.9989" stroke="currentColor" stroke-linecap="round" stroke-linejoin="round"/>
  <path d="M7 14V20M7 20L10 17M7 20L4 17" stroke="currentColor" stroke-linecap="round" stroke-linejoin="round"/>
</svg>
